X:1
T:Lifes a Bumper   Primo. & Secondo WHL.[extra_1]
T:Lifes a Bumper   Primo. & Secondo WHL.[extra_1]
T:Richard Wainright, 1805
C:Richard Wainright, 1805
%%score 1 2
L:1/8
Q:1/8=250
M:3/4
K:G
V:1 treble 
V:2 treble 
V:1
!f! g4 d2 | B2 G2 z2 | Tc2 B2 e2 | d2 ef g2 | a2 g2 f2 | g4 z2 |!f! g4 a2 | b2 a2 z2 | Ta4 ^g2 | %9
!f! a2 e2 a2 | f4 d2 | gf>efg>e | a2 d2 e2 | f2 z2 z2 | z2 a2 a2 | b4 a2 | g2 f2 e2 | d4 z2 :: %18
!f! d4 a2 | f4 d2 | e>d e2 f2 | Tg6 | g6 | !>!g6 | !>!a4 g2 | .f2 .f2 .f2 | f3 fff | g2 d2 d2 | %28
 d3 d(b=f) | .e2 .e2 .e2 | e3 eag | !fermata!f4 z2 | g4 g2 | e3 f g2 | a2 g2 f2 | g4 z2 :: %36
[M:2/2] B2 c2 d2 z d | f2 g2 f2 z2 | g2 a2 f2 g>a | g2 f2 g2 z2 | d3 ^c d2 d2 | b2 ag f2 fe | a8 | %43
 b2 z2 z2 ba | g4 z eag | ff b2 z e a2 | z egg !fermata!g4 | g2 ag f2 ga/b/ | f2 e2 d4 :: %49
!f! a3 g fedc | B2 z2 z2 ag | fdef g2 dd | dBcd edfg | !fermata!f8 | g3 f g2 de | =f2 ed e2 z2 | %56
 a3 ^g a2 ef | g2 fe f2 ag | fedc B2 z2 | z2 ff g2 z2 | e4 g4 | f2 g2 g4 | f3 f g4 :| %63
V:2
!f! [DG]4 D2 | [Gd]2 E2 z2 |!p! [GB]4 [GB]2 | (G2 c2) .B2 | .c2 .B2 .A2 | B4 z2 | B4 f2 | %7
 g2 f2 z2 | f2 e2 d2 | ^c2 z2 c2 | z2 d2 A2 | B2 ^c4 | d4 ^c2 | d>ef>ga>g | .f2 .f2 .f2 | g4 d2 | %16
 e2 d2 G2 | F4 A2 :: F4 ^c2 | d4 G2 | G>G c2 c2 | B6 | (Tg2 f2) .e2 | (d2 c2) .B2 | c4 B2 | %25
 .A2 .A2 .A2 |"^NB1" A3 Adc | .B2 .B2 .B2 | B3 BBB | .c2 .c2 .c2 | c3 ^ccc | !fermata!d4 A2 | %32
 B3 c d2 | e4 d2 | c2 Tc2 B2 | B6 ::[M:2/2] G2 F2 G2 z G | c2 B2 A2 z2 | c2 c2 d2 d>e | %39
 B2 A2 B2 z2 | B2 AG F2 F2 | d2 ^c2 d2 z2 | z2 fe f^cde | f2 fe d^c d2 | z Bed ^c2 c2 | %45
 d z f2 e2 z e | d z2 d !fermata!^c4 | d2 e2 d2 d2 | d2 BG F2 z2 :: z4 f3 f | gdga f2 z2 | %51
 z4 dcBA | G3 G G2 cB | !fermata!c8 | B3 c d2 Bc | d2 cB c2 z2 | ^c3 d e2 cd | e2 d^c d2 z2 | %58
 cfff gag z | fedc B2 z2 | c4 e4 | d2 e2 e4 | d3 d"^finne" e4 :| %63

